X: 29
T:Montecarlo or Bust
% Nottingham Music Database
S:via PR
M:4/4
L:1/4
K:G
"G"[B,D][G,B,] [B,D][DG]-|[DG][B,2D2][DG]|"G"[GB][DG] [GB][Bd]-|[B4d4]|"G"[Bd][GB] [Ac][GB]|"G7"[Bd][GB] [Ac][GB]|"C"[Bd][Ac] [Gc][EG]-|[E3G3][=FA]|
"D7"[F2A2] [F2A2]|[FA][Ac] -[Ac][DF]|"G"[GB][Ac] [^Ad][Bd]-|"E7"[B3d3][Bd]|"A7"[Bd][A^c] [GA][EG]|[Bd][A^c] [GA][EG]|"D7"[FA][GB] [^Gc][Ac]-|[A4c4]||
"G"[B,D][G,B,] [B,D][DG]-|[DG][B,2D2][DG]|"G"[GB][DG] [GB][Bd]-|[B4d4]|"G"[Bd][GB] [Ac][GB]|"G7"[Bd][GB] [Ac][GB]|"C"[Bd][Ac] [Gc][EG]-|
[E3G3][EG]|"C"[EG][^DG] [EG][Gc]-|"C#/dim"[Gc][A2c2][^Ad]|"G""d"[Bd][^Ad] [Bd][ce]-|"E7"[ce][^D2G2][E^G]|"A7"[B2d2] [Bd][Bd]-|"A7"[Bd][GA] "D7"[A2c2]|\
"G"[G4B4]||


